actions/22x22-dark/lensautofix.svg

<svg viewBox="0 0 22 22" xmlns="http://www.w3.org/2000/svg"><path d="m11 3c-4.4182741 0-8 3.5817259-8 8 0 4.418274 3.5817259 8 8 8 4.418274 0 8-3.581726 8-8 0-4.4182741-3.581726-8-8-8zm .109375 3.4277344s-.109654.0013951.392578.0214844c2.362463.2037772 4.178088 2.1795471 4.179688 4.5507812 0 2.52473-2.047536 4.572266-4.572266 4.572266-2.5247302 0-4.5722656-2.047536-4.5722656-4.572266 0-2.5247302 2.0475354-4.5722655 4.5722656-4.5722656zm0 1.1445312c-1.8935476.0000001-3.4277344 1.5341868-3.4277344 3.4277344 0 1.893547 1.5341868 3.427734 3.4277344 3.427734 1.893547 0 3.427734-1.534187 3.427734-3.427734 0-1.8935476-1.534187-3.4277344-3.427734-3.4277344zm0 1.1425782c.234069-.0000002.45565.0445904.667969.109375-.39282.1804363-.667969.5711264-.667969 1.0332031 0 .6331431.509435 1.1425781 1.142578 1.1425781.462077 0 .85276-.275149 1.033203-.667969.064777.212319.109375.4339.109375.667969 0 1.266286-1.01887 2.285156-2.285156 2.285156-1.2662856 0-2.2851562-1.01887-2.2851562-2.285156 0-1.2662857 1.0188706-2.2851562 2.2851562-2.2851562z" fill="#3daee9"/></svg>

<svg xmlns="http://www.w3.org/2000/svg" viewBox="0 0 22 22">
  <defs id="defs3051">
    <style type="text/css" id="current-color-scheme">
      .ColorScheme-Highlight {
        color:#3daee9;
      }
      </style>
  </defs>
    <path
       style="fill:currentColor;fill-opacity:1;stroke:none"
	 class="ColorScheme-Highlight"
        d="M 11 3 C 6.5817259 3 3 6.5817259 3 11 C 3 15.418274 6.5817259 19 11 19 C 15.418274 19 19 15.418274 19 11 C 19 6.5817259 15.418274 3 11 3 z M 11.109375 6.4277344 C 11.109375 6.4277344 10.999721 6.4291295 11.501953 6.4492188 C 13.864416 6.652996 15.680041 8.6287659 15.681641 11 C 15.681641 13.52473 13.634105 15.572266 11.109375 15.572266 C 8.5846448 15.572266 6.5371094 13.52473 6.5371094 11 C 6.5371094 8.4752698 8.5846448 6.4277345 11.109375 6.4277344 z M 11.109375 7.5722656 C 9.2158274 7.5722657 7.6816406 9.1064524 7.6816406 11 C 7.6816406 12.893547 9.2158274 14.427734 11.109375 14.427734 C 13.002922 14.427734 14.537109 12.893547 14.537109 11 C 14.537109 9.1064524 13.002922 7.5722656 11.109375 7.5722656 z M 11.109375 8.7148438 C 11.343444 8.7148436 11.565025 8.7594342 11.777344 8.8242188 C 11.384524 9.0046551 11.109375 9.3953452 11.109375 9.8574219 C 11.109375 10.490565 11.61881 11 12.251953 11 C 12.71403 11 13.104713 10.724851 13.285156 10.332031 C 13.349933 10.54435 13.394531 10.765931 13.394531 11 C 13.394531 12.266286 12.375661 13.285156 11.109375 13.285156 C 9.8430894 13.285156 8.8242188 12.266286 8.8242188 11 C 8.8242188 9.7337143 9.8430894 8.7148438 11.109375 8.7148438 z "
     />
</svg>
